assets/img/braze_icons/letter-spacing-01.svg

<svg fill="none" height="24" viewBox="0 0 24 24" width="24" xmlns="http://www.w3.org/2000/svg"><g fill="#801ed7"><path d="m4 3c0-.55228-.44772-1-1-1s-1 .44772-1 1v18c0 .5523.44772 1 1 1 .55229 0 1-.4477 1-1z"/><path d="m22 3c0-.55228-.4477-1-1-1s-1 .44772-1 1v18c0 .5523.4477 1 1 1s1-.4477 1-1z"/><path clip-rule="evenodd" d="m9.46218 14-1.55181 3.414c-.22854.5028-.82139.7251-1.32417.4966-.50278-.2286-.7251-.8214-.49657-1.3242l4.28667-9.4307c.1025-.22564.2056-.45252.3062-.62964.0939-.16526.2875-.48232.6547-.66319.4179-.20583.9077-.20583 1.3256 0 .3672.18087.5608.49793.6547.66319.1006.17712.2037.40399.3062.62963l4.2867 9.43071c.2285.5028.0062 1.0956-.4966 1.3242-.5028.2285-1.0956.0062-1.3242-.4966l-1.5518-3.414zm4.16652-2h-3.2574l1.6287-3.5832z" fill-rule="evenodd"/></g></svg>

<svg width="24" height="24" viewBox="0 0 24 24" fill="none" xmlns="http://www.w3.org/2000/svg">
<path d="M4 3C4 2.44772 3.55228 2 3 2C2.44772 2 2 2.44772 2 3V21C2 21.5523 2.44772 22 3 22C3.55229 22 4 21.5523 4 21L4 3Z" fill="#801ED7"/>
<path d="M22 3C22 2.44772 21.5523 2 21 2C20.4477 2 20 2.44772 20 3V21C20 21.5523 20.4477 22 21 22C21.5523 22 22 21.5523 22 21V3Z" fill="#801ED7"/>
<path fill-rule="evenodd" clip-rule="evenodd" d="M9.46218 14L7.91037 17.414C7.68183 17.9168 7.08898 18.1391 6.5862 17.9106C6.08342 17.682 5.8611 17.0892 6.08963 16.5864L10.3763 7.1557C10.4788 6.93006 10.5819 6.70318 10.6825 6.52606C10.7764 6.3608 10.97 6.04374 11.3372 5.86287C11.7551 5.65704 12.2449 5.65704 12.6628 5.86287C13.03 6.04374 13.2236 6.3608 13.3175 6.52606C13.4181 6.70318 13.5212 6.93005 13.6237 7.15569L17.9104 16.5864C18.1389 17.0892 17.9166 17.682 17.4138 17.9106C16.911 18.1391 16.3182 17.9168 16.0896 17.414L14.5378 14L9.46218 14ZM13.6287 12L10.3713 12L12 8.4168L13.6287 12Z" fill="#801ED7"/>
</svg>
